X:1
T:Charles Attwood.  WHL.[204]
T:Charles Attwood.  WHL.[204]
T:Attributed to James Hill by Thomas Armstrong
C:Attributed to James Hill by Thomas Armstrong
L:1/8
Q:1/4=180
M:2/2
K:A
V:1 treble 
V:1
 (3EFG | AGBA cBdc | e^dfe =dcBA | FAGB AcBd |{d} cB/A/ dc{c} B2 (3EFG | AGBA cBdc | %6
 e^dfe"^NB1" =dcBA | FAGB AcBd | cA{c} BA/G/ A2 :: (3efg | agba gafg | efde cdBc | AECE AcBd | %13
 cB/A/ dc B2 cd | eac'g efde | cdBc AEFG | AcBd cedf | eEFG A2 :| %18

